packages/ui-solid/icons/notifications_24.svg

<svg width="24" height="24" viewBox="0 0 24 24" fill="none" xmlns="http://www.w3.org/2000/svg">
<path fill-rule="evenodd" clip-rule="evenodd" d="M12 3.80631C11.8589 3.80631 11.7225 3.81041 11.5905 3.8183C9.84299 3.92283 8.81915 4.69401 8.20878 5.57688C7.57193 6.49807 7.35241 7.59493 7.35241 8.31467V11.3916C7.35241 11.4332 7.35244 11.4742 7.35247 11.5148C7.35299 12.2572 7.35339 12.8306 7.17593 13.3719C7.13973 13.4823 7.09814 13.5908 7.05132 13.6969C6.82173 14.217 6.44073 14.6361 5.94744 15.1787C5.92049 15.2084 5.8932 15.2384 5.86558 15.2688C5.3897 15.793 5.0825 16.1337 4.89428 16.3934C5.20753 16.4291 5.65964 16.4307 6.35741 16.4307H17.6426C18.3404 16.4307 18.7925 16.4291 19.1057 16.3934C18.9175 16.1337 18.6103 15.793 18.1344 15.2688C18.1068 15.2384 18.0795 15.2084 18.0526 15.1787C17.5593 14.6361 17.1783 14.217 16.9487 13.6969C16.9019 13.5908 16.8603 13.4823 16.8241 13.3719C16.6466 12.8306 16.647 12.2572 16.6475 11.5148C16.6476 11.4742 16.6476 11.4332 16.6476 11.3916V8.31467C16.6476 7.59493 16.4281 6.49807 15.7912 5.57688C15.1809 4.69401 14.157 3.92283 12.4095 3.8183C12.2775 3.81041 12.1411 3.80631 12 3.80631ZM11.4883 2.01505C11.6551 2.00507 11.8257 2 12 2C12.1743 2 12.3449 2.00507 12.5117 2.01505C14.8024 2.15207 16.3117 3.21014 17.2249 4.53101C18.1116 5.81355 18.406 7.29492 18.406 8.31467V11.3916C18.406 12.3141 18.4167 12.5702 18.4905 12.7954C18.5079 12.8483 18.5278 12.9002 18.5502 12.951C18.6457 13.1675 18.808 13.3622 19.4204 14.0369L19.4597 14.0802C19.9064 14.5721 20.2982 15.0036 20.5567 15.3715C20.8062 15.7265 21.1183 16.2738 20.9544 16.9216C20.9096 17.0987 20.8381 17.2676 20.7426 17.4221C20.3932 17.987 19.7907 18.1257 19.3677 18.1804C18.9295 18.2371 18.3551 18.2371 17.7003 18.237H6.29975C5.64492 18.2371 5.07047 18.2371 4.63227 18.1804C4.20934 18.1257 3.60685 17.987 3.25741 17.4221C3.16186 17.2676 3.09038 17.0987 3.04557 16.9216C2.88168 16.2738 3.19381 15.7265 3.4433 15.3715C3.7018 15.0036 4.09362 14.5721 4.54026 14.0802L4.57956 14.0369C5.19203 13.3622 5.35425 13.1675 5.44979 12.951C5.47221 12.9002 5.49213 12.8483 5.50946 12.7954C5.58331 12.5702 5.59398 12.3141 5.59398 11.3916V8.31467C5.59398 7.29492 5.88842 5.81355 6.7751 4.53101C7.68827 3.21014 9.19755 2.15207 11.4883 2.01505Z" fill="#007AFF"/>
<path d="M11.9996 22C12.9135 22 13.6907 21.2877 13.9767 20.2944C14.107 19.8419 13.7216 19.4514 13.2623 19.4514H10.7368C10.2775 19.4514 9.89214 19.8419 10.0224 20.2944C10.3084 21.2877 11.0856 22 11.9996 22Z" fill="#007AFF"/>
</svg>

<svg xmlns="http://www.w3.org/2000/svg" width="24" height="24" fill="none"><path fill="currentColor" fill-rule="evenodd" d="M12 3.806q-.211 0-.41.012c-1.747.105-2.77.876-3.381 1.759-.637.921-.857 2.018-.857 2.738v3.2c.001.742.001 1.316-.176 1.857q-.054.166-.125.325c-.23.52-.61.94-1.104 1.482l-.081.09c-.476.524-.784.865-.972 1.124.314.036.766.038 1.463.038h11.286c.697 0 1.15-.002 1.463-.038-.189-.26-.496-.6-.972-1.124l-.081-.09c-.494-.543-.875-.962-1.104-1.482a4 4 0 0 1-.125-.325c-.177-.541-.177-1.115-.177-1.857v-3.2c0-.72-.219-1.817-.856-2.738-.61-.883-1.634-1.654-3.382-1.759A7 7 0 0 0 12 3.806m-.512-1.791a9 9 0 0 1 1.024 0c2.29.137 3.8 1.195 4.713 2.516.887 1.283 1.181 2.764 1.181 3.784v3.077c0 .922.01 1.178.085 1.403q.025.08.06.156c.095.216.257.411.87 1.086l.039.043c.446.492.838.924 1.097 1.291.25.355.561.903.397 1.55a1.8 1.8 0 0 1-.211.501c-.35.565-.952.704-1.375.758-.438.057-1.013.057-1.668.057H6.3c-.655 0-1.23 0-1.668-.057-.423-.054-1.025-.193-1.375-.758a1.8 1.8 0 0 1-.211-.5c-.164-.648.148-1.196.397-1.55.259-.368.65-.8 1.097-1.292l.04-.043c.612-.675.774-.87.87-1.086q.033-.076.06-.156c.073-.225.084-.48.084-1.403V8.315c0-1.02.294-2.501 1.181-3.784.913-1.32 2.423-2.379 4.713-2.516" clip-rule="evenodd"/><path fill="currentColor" d="M12 22c.914 0 1.69-.712 1.977-1.706.13-.452-.255-.843-.715-.843h-2.525c-.46 0-.845.39-.715.843C10.308 21.288 11.086 22 12 22"/></svg>
